www/assets/icons/surfing.svg

<svg xmlns="http://www.w3.org/2000/svg" width="24" height="24" viewBox="0 0 24 24" fill='currentColor'><path d="M21 22.75c-1.03 0-2.06-.25-3-.75-1.89 1-4.11 1-6 0-1.89 1-4.11 1-6 0-.95.5-1.97.75-3 .75H2v-2h1c1.04 0 2.08-.35 3-1 1.83 1.3 4.17 1.3 6 0 1.83 1.3 4.17 1.3 6 0 .91.65 1.96 1 3 1h1v2zm-4-21.5c-1.1 0-2 .9-2 2s.9 2 2 2 2-.9 2-2-.9-2-2-2m-2.57 6.98-2.25 1.52 3.82 3v3.84c.53.38 1.03.78 1.49 1.17-.68.58-1.55.99-2.49.99-1.2 0-2.27-.66-3-1.5-.73.84-1.8 1.5-3 1.5-.33 0-.65-.05-.96-.14C5.19 16.65 3 14.47 3 13.03c0-1.03 1.01-1.28 1.85-1.28.98 0 2.28.31 3.7.83l-.53-3.1c-.11-.67.18-1.38.78-1.79l2.15-1.45-2-.37L6.13 7.8 5 6.15l3.5-2.4 5.55 1.03c.45.09.93.37 1.22.89l.88 1.55a5.01 5.01 0 0 0 4.35 2.53v2a7.01 7.01 0 0 1-6.07-3.52m-4.13 2.62.44 2.65c.92.42 2.48 1.27 3.26 1.75v-1.5z"/></svg>

<svg width="24" height="24" viewBox="0 0 24 24" xmlns="http://www.w3.org/2000/svg" fill='currentColor'><path d="M21 22.75C19.97 22.75 18.94 22.5 18 22C16.11 23 13.89 23 12 22C10.11 23 7.89 23 6 22C5.05 22.5 4.03 22.75 3 22.75H2V20.75H3C4.04 20.75 5.08 20.4 6 19.75C7.83 21.05 10.17 21.05 12 19.75C13.83 21.05 16.17 21.05 18 19.75C18.91 20.4 19.96 20.75 21 20.75H22V22.75H21ZM17 1.25C15.9 1.25 15 2.15 15 3.25C15 4.35 15.9 5.25 17 5.25C18.1 5.25 19 4.35 19 3.25C19 2.15 18.1 1.25 17 1.25ZM14.43 8.23L12.18 9.75L16 12.75V16.59C16.53 16.97 17.03 17.37 17.49 17.76C16.81 18.34 15.94 18.75 15 18.75C13.8 18.75 12.73 18.09 12 17.25C11.27 18.09 10.2 18.75 9 18.75C8.67 18.75 8.35 18.7 8.04 18.61C5.19 16.65 3 14.47 3 13.03C3 12 4.01 11.75 4.85 11.75C5.83 11.75 7.13 12.06 8.55 12.58L8.02 9.48C7.91 8.81 8.2 8.1 8.8 7.69L10.95 6.24L8.95 5.87L6.13 7.8L5 6.15L8.5 3.75L14.05 4.78C14.5 4.87 14.98 5.15 15.27 5.67L16.15 7.22C17.01 8.73 18.64 9.75 20.5 9.75V11.75C17.91 11.75 15.64 10.33 14.43 8.23ZM10.3 10.85L10.74 13.5C11.66 13.92 13.22 14.77 14 15.25V13.75L10.3 10.85Z"/></svg>
